!!!!SEGMENT: pl-kk--kk-i-481--005_zangl-johann-baptist--msza-czteroglosowa-benedictus.krn
!!!id: 18xx:1433
!!!COM: Zangl, Johann Baptist
!!!COM-rism: pe30084071
!!!CDT: 1821-1897
!!!CNT: Austrian, Italian
!!!OTL: Msza czterogłosowa – Benedictus
!!!PDT:
!!!SMS-siglum: PL-Kk
!!!SMS-shelfmark: Kk.I.481
!!!NIFC-rismID: 1001140261
!!!URL-scan: http://repozytorium.nifc.pl/skany/pl-kk-nut--i-481
!!!ONB-nifc: UWAGA: na podstawie głosów. Proszę uzupełnić pola !!!SMS dot. partytury i głosów. Uwaga: części Mszy: 1. Kyrie, 2. Gloria, 3. Credo, 4. Sanctus, 5. Benedictus, 6. Agnus
!!!SMS-variant: Tenor I PL-Kk KK.I.481:0001-0003; Tenor II PL-Kk KK.I.481:0009-0011; Bas I PL-Kk KK.I.481:0017-0019; Bas II PL-Kk KK.I.481:0030-0032
!!!SMS-altvar: Tenor I PL-Kk KK.I.481:0005-0007; Tenor II PL-Kk KK.I.481:0013-0015; Bas I PL-Kk KK.I.481:0021-0023; Bas II PL-Kk KK.I.481:0026-0028; Partytura PL-Kk KK.I.481:0033-0036; Partytura PL-Kk KK.I.481:0039-0042
**kern	**text	**kern	**text	**kern	**text	**kern	**text
*part4	*part4	*part3	*part3	*part2	*part2	*part1	*part1
*staff4	*staff4	*staff3	*staff3	*staff2	*staff2	*staff1	*staff1
*I"Bas II	*	*I"Bas I	*	*I"Tenor II	*	*I"Tenor I	*
*I'B 2	*	*I'B 1	*	*I'T 2	*	*I'T 1	*
*group1	*	*group1	*	*group1	*	*group1	*
*clefF4	*	*clefF4	*	*clefGv2	*	*clefGv2	*
*k[f#]	*	*k[f#]	*	*k[f#]	*	*k[f#]	*
*M4/4	*	*M4/4	*	*M4/4	*	*M4/4	*
*met(c)	*	*met(c)	*	*met(c)	*	*met(c)	*
!	!	!	!	!LO:TX:b:t=Benedictus	!	!LO:TX:a:t=Andante	!
!LO:TX:b:t=Benedictus	!	!LO:TX:b:t=Benedictus	!	!LO:TX:a:t=Andante	!	!LO:TX:b:t=Benedictus	!
!LO:TX:a:t=Andante	!	!LO:TX:a:t=Andante	!	!LO:TX:t=P:problem:głos zapisany w kluczu wiolinowym	!	!LO:TX:t=P:problem:głos zapisany w kluczu wiolinowym	!
4r	.	4r	.	8.B\	Be-	8.d\	Be-
.	.	.	.	16B\	-ne-	16d\	-ne-
=1	=1	=1	=1	=1	=1	=1	=1
2r	.	2r	.	2B\	-di-	2d\	-di-
4r	.	4r	.	4G/	-ctus	4B\	-ctus
8.D\	Be-	8.D\ 8.B	Be-	4r	.	4r	.
16D\	-ne-	16D\ 16B	-ne-	.	.	.	.
=2	=2	=2	=2	=2	=2	=2	=2
!	!	!	!	!	!	!LO:TX:a:t=2.	!
2D\	-di-	2D\ 2B	-di-	2r	.	1r	.
4BB/	-ctus	4BB/ 4G	-ctus	4r	.	.	.
4GG/	qui	4GG/ 4G	qui	4B\	qui	.	.
=3	=3	=3	=3	=3	=3	=3	=3
*	*	*^	*	*	*	*	*
2D\	ve-	(4F#/	2D\	ve-	(<4A/	ve-	1r	.
.	.	4G/)	.	.	4B\)	.	.	.
4D\	-nit	4A/	4D\	-nit	4c\	-nit	.	.
4D\	in	(8G/L	4D\	in	8B/L	in	.	.
.	.	8F#/J)	.	.	8A/J	.	.	.
=4	=4	=4	=4	=4	=4	=4	=4	=4
4.D\	no-	4.F#/	4.D\	no-	4.A/	no-	2r	.
8GG/	-mi-	8G/	8BB/	-mi-	8B\	-mi-	.	.
4GG/	-ne	4G/	4GG/	-ne	4B\	-ne	4r	.
4r	.	4B/	4r	qui	4d\	qui	4g\	qui
*	*	*v	*v	*	*	*	*	*
!LO:LB:g=original	!	!	!	!	!	!	!
=5	=5	=5	=5	=5	=5	=5	=5
!LO:TX:a:t=1.	!	!	!	!	!	!	!
1r	.	(4A\	ve-	2d\	ve-	(4f#\	ve-
.	.	4B\)	.	.	.	4g\)	.
.	.	4c\	-nit	4d\	-nit	4a\	-nit
.	.	8B\L	in	4d\	in	(8g\L	in
.	.	8A\J	.	.	.	8f#\J)	.
!	!	!LO:LB:g=original	!	!LO:LB:g=original	!	!	!
=6	=6	=6	=6	=6	=6	=6	=6
2r	.	4.A\	no-	4.d\	no-	4.f#\	no-
.	.	8B\	-mi-	8d\	-mi-	8g\	-mi-
4r	.	4B\	-ne	4d\	-ne	4g\	-ne
4BB/	in	4BB/ 4G	in	4G/	in	4d\	in
!	!	!	!	!	!	!LO:LB:g=original	!
=7	=7	=7	=7	=7	=7	=7	=7
*	*	*^	*	*	*	*	*
4C/	no-	4G/	4C/	no-	4G/	no-	4e\	no-
8E\	-mi-	8G/	8E\	-mi-	8G/	-mi-	8c\	-mi-
8D\	-ne	8G/	8D\	-ne	8G/	-ne	8B\	-ne
4C#X/	Do-	4C#X/ 4G	2ryy	Do-	4G/	Do-	4A/	Do-
4C#/	-mi-	4C#/ 4E	.	-mi-	4G/	-mi-	4A/	-mi-
=8	=8	=8	=8	=8	=8	=8	=8	=8
2D\	-ni	2F#/	2D\	-ni	2F#/	-ni	2A/	-ni
4r	.	4r	4rEEyy	.	4r	.	4r	.
4F#\	qui	4A/	4F#\	qui	4d\	qui	4r	.
=9	=9	=9	=9	=9	=9	=9	=9	=9
!	!	!	!	!	!	!	!LO:TX:a:t=1.	!
(4E\	ve-	2A/	4E\	ve-	(4c#X\	ve-	1r	.
4F#\)	.	.	4F#\	.	4d\)	.	.	.
4G\	-nit	4A/	4G\	nit	4e\	-nit	.	.
8F#\L	in	4A/	8F#\L	in	8d\L	in	.	.
8E\J	.	.	8E\J	.	8c#\J	.	.	.
=10	=10	=10	=10	=10	=10	=10	=10	=10
4.E\	no-	4.A/	4.E\	no-	4.c#X\	no-	2r	.
8F#\	-mi-	8A/	8F#\	-mi-	8d\	-mi-	.	.
4F#\	-ne	4A/	4F#\	-ne	4d\	-ne	4r	.
4D\	in	4A/	4D\	in	4d\	in	4f#\	in
=11	=11	=11	=11	=11	=11	=11	=11	=11
2AA/	no-	2A/	2AA/	no-	(4c#X\	no-	(4e\	no-
.	.	.	.	.	4d\)	.	4f#\)	.
4AA/	-mi-	4A/	4AA/	-mi-	4e\	-mi-	4g\	-mi-
4AA/	-ne	4A/	4AA/	-ne	(8d\L	-ne	(8f#\L	-ne
.	.	.	.	.	8c#\J)	.	8e\J)	.
!LO:LB:g=original	!	!	!	!	!	!	!	!
=12	=12	=12	=12	=12	=12	=12	=12	=12
4.AA/	Do-	4.A/	4.AA/	Do-	4.c#X\	Do-	4.e\	Do-
8D\	-mi-	8A/	8D\	-mi-	8d\	-mi-	8f#\	-mi-
4D\	-ni	4A/	4D\	-ni	4d\	-ni	4f#\	-ni
4D\	qui	4D/	4D\	qui	4A/	qui	4f#\	qui
*	*	*v	*v	*	*	*	*	*
!	!	!LO:PB:g=original	!	!LO:LB:g=original	!	!	!
=13	=13	=13	=13	=13	=13	=13	=13
2D\	ve-	4D\	ve-	2B\	ve-	(4f#\	ve-
.	.	(8E\L	.	.	.	8g\L	.
.	.	8F#\J)	.	.	.	8f#\J)	.
4GG/	-nit	4G\	-nit	4B\	-nit	4e\	-nit
4GG/	in	4G\	in	4B\	in	4e\	in
!	!	!	!	!	!	!LO:PB:g=original	!
=14	=14	=14	=14	=14	=14	=14	=14
2AA/	no-	(4G\	no-	2A/	no-	(4e\	no-
.	.	8D\L	.	.	.	8f#\L	.
.	.	8E\J)	.	.	.	8e\J)	.
4AA/	-mi-	4F#\	-mi-	4A/	-mi-	4d\	-mi-
4AA/	-ne	4Fn\	-ne	4A/	-ne	4d\	-ne
=15	=15	=15	=15	=15	=15	=15	=15
4AA/	no-	4E\	no-	4A/	no-	4d\	no-
8AA/	-mi-	8E\	-mi-	8A/	-mi-	8c#X\	-mi-
8AA/	-ne	8F#\	-ne	8A/	-ne	8d\	-ne
4AA/	Do-	4A\	Do-	4d\	Do-	4f#\	Do-
4AA/	-mi-	4G\	-mi-	4c#X\	-mi-	4e\	-mi-
=16	=16	=16	=16	=16	=16	=16	=16
2D\	-ni	2F#\	-ni	2d\	-ni	2d\	-ni
4r	.	4r	.	4r	.	2r	.
4D\	in	4F#\	in	4d\	in	.	.
=17	=17	=17	=17	=17	=17	=17	=17
!	!	!	!	!	!	!LO:TX:a:t=1.	!
(4E\	no-	(4G\	no-	2d\	no-	1r	.
4F#\)	.	4A\)	.	.	.	.	.
4G\	-mi-	4B\	-mi-	4d\	-mi-	.	.
4G#X\	-ne	4B\	-ne	4e\	-ne	.	.
=18	=18	=18	=18	=18	=18	=18	=18
4.G#X\	Do-	4.B\	Do-	4.d\	Do-	2r	.
8A\	-mi-	8c\	-mi-	8d\	-mi-	.	.
4A;\	-ni	4c;\	-ni	4d;\	-ni	4r;	.
4r	.	4r	.	8.B\	Be-	8.d\	Be-
.	.	.	.	16B\	-ne-	16d\	-ne-
!LO:LB:g=original	!	!LO:LB:g=original	!	!	!	!	!
=19	=19	=19	=19	=19	=19	=19	=19
2r	.	2r	.	2B\	-di-	2d\	-di-
4r	.	4r	.	4G/	-ctus	4B\	-ctus
8.D\	Be-	8.B\	Be-	4r	.	4r	.
16D\	-ne-	16B\	-ne-	.	.	.	.
!	!	!	!	!LO:LB:g=original	!	!	!
=20	=20	=20	=20	=20	=20	=20	=20
!	!	!	!	!	!	!LO:TX:a:t=2.	!
2D\	-di-	2B\	-di-	2r	.	1r	.
4BB/	-ctus	4G\	-ctus	4r	.	.	.
4BB/	qui	4G\	qui	4B\	qui	.	.
=21	=21	=21	=21	=21	=21	=21	=21
2D\	ve-	(4F#X\	ve-	(4A/	ve-	1r	.
.	.	4G\)	.	4B\)	.	.	.
4D\	-nit	4A\	-nit	4c\	-nit	.	.
4D\	qui	8G\L	qui	8B\L	qui	.	.
.	.	8F#\J	.	8A\J	.	.	.
=22	=22	=22	=22	=22	=22	=22	=22
(4.D\	ve-	(4.F#\	ve-	(4.A/	ve-	2r	.
8GG/)	.	8G\)	.	8B\)	.	.	.
4GG/	-nit	4G\	-nit	4B\	-nit	4r	.
4r	.	4B\	in	4d\	in	4g\	in
!	!	!	!	!	!	!LO:LB:g=original	!
=23	=23	=23	=23	=23	=23	=23	=23
!LO:TX:a:t=1.	!	!	!	!	!	!	!
1r	.	(4A\	no-	2d\	no-	(4f#\	no-
.	.	4B\)	.	.	.	4g\)	.
.	.	4c\	-mi-	4d\	-mi-	4a\	-mi-
.	.	8B\L	-ne	4d\	-ne	8g\L	-ne
.	.	8A\J	.	.	.	8f#\J	.
=24	=24	=24	=24	=24	=24	=24	=24
2r	.	4.A\	Do-	4.d\	Do-	4.f#\	Do-
.	.	8B\	-mi-	8d\	-mi-	8g\	-mi-
4r	.	4B\	-ni	4d\	-ni	4g\	-ni
4BB/	in	4G\	in	4G/	in	4d\	in
!	!	!LO:LB:g=original	!	!	!	!	!
=25	=25	=25	=25	=25	=25	=25	=25
4C/	no-	4G\	no-	4G/	no-	4e\	no-
8E\	-mi-	8G\	-mi-	8G/	-mi-	8c\	-mi-
8D\	-ne	8G\	-ne	8G/	-ne	8B\	-ne
4C/	Do-	4G\	Do-	4G/	Do-	4A/	Do-
!LO:TX:t=P:problem:# niebieskim atramentem na dźwięk C#	!	!	!	!	!	!	!
4C/	-mi-	4E\	-mi-	4G/	-mi-	4A/	-mi-
!LO:LB:g=original	!	!	!	!LO:PB:g=original	!	!	!
=26	=26	=26	=26	=26	=26	=26	=26
2D\	-ni	2F#\	-ni	2F#/	-ni	2A/	-ni
2r	.	2r	.	4r	.	4r	.
.	.	.	.	8.B\	Be-	8.d\	Be-
.	.	.	.	16B\	-ne-	16d\	-ne-
=27	=27	=27	=27	=27	=27	=27	=27
2r	.	2r	.	2B\	-di-	2d\	-di-
4r	.	4r	.	4G/	-ctus	4B\	-ctus,
8.GG/	Be-	8.Fn\	Be-	8.B\	Be-	8.g\	Be-
16GG/	-ne-	16F\	-ne-	16B\	-ne-	16g\	-ne-
=28	=28	=28	=28	=28	=28	=28	=28
2C/	-di-	2E\	-di-	2c\	-di-	2g\	-di-
4C/	-ctus	4G\	-ctus	4c\	-ctus	4e\	-ctus
4C/	qui	4G\	qui	4c\	qui	4e\	qui
!	!	!	!	!	!	!LO:LB:g=original	!
=29	=29	=29	=29	=29	=29	=29	=29
(4D\	ve-	(4F#X\	ve-	(4d\	ve-	(4d\	ve-
4C/)	.	4G\)	.	4c\)	.	4e\)	.
4BB/	-nit	4D\	-nit	4c\	-nit	4f#\	-nit
4GG/	in	4G\	in	4B\	in	4g\	in
=30	=30	=30	=30	=30	=30	=30	=30
2D\	no-	2G\	no-	2B\	no-	2d\	no-
4C#X/	-mi-	4G\	-mi-	4A/	-mi-	4e\	-mi-
4C#/	-ne	4G\	-ne	4A/	-ne	4e\	-ne
=31	=31	=31	=31	=31	=31	=31	=31
2D\	Do-	2.G\	Do-	2A/	Do-	2d\	Do-
2D\	-mi-	.	.	2A/	-mi-	2A/	-mi-
.	.	4F#\	-mi-	.	.	.	.
=32	=32	=32	=32	=32	=32	=32	=32
1GG	-ni.	1G;	-ni.	1G;	-ni.	1G;	-ni
==	==	==	==	==	==	==	==
*-	*-	*-	*-	*-	*-	*-	*-
!!!system-decoration: [(g1)]
!!!RDF**kern: >= above
!!!RDF**kern: <= below
!!!ENC:Anna Matuszewska
!!!END:2021-01-31
!!!ENC: Marcin Jachim
!!!END: 2021-01-23
